packages/kaspersky-hexa-ui-icons/src/iconsSVGs/16/Sort3Err.svg

<svg width="16" height="16" viewBox="0 0 16 16" fill="none" xmlns="http://www.w3.org/2000/svg">
<path fill-rule="evenodd" clip-rule="evenodd" d="M2.0166 11.9999C2.0166 12.3589 2.30762 12.6499 2.6666 12.6499H13.3333C13.6923 12.6499 13.9833 12.3589 13.9833 11.9999C13.9833 11.6409 13.6923 11.3499 13.3333 11.3499H2.6666C2.30762 11.3499 2.0166 11.6409 2.0166 11.9999ZM2.0166 7.9999C2.0166 8.35889 2.30762 8.6499 2.6666 8.6499H10.6666C11.0256 8.6499 11.3166 8.35889 11.3166 7.9999C11.3166 7.64092 11.0256 7.3499 10.6666 7.3499H2.6666C2.30762 7.3499 2.0166 7.64092 2.0166 7.9999ZM2.0166 3.9999C2.0166 4.35889 2.30762 4.6499 2.6666 4.6499H7.99994C8.35892 4.6499 8.64994 4.35889 8.64994 3.9999C8.64994 3.64092 8.35892 3.3499 7.99994 3.3499H5.33327H2.6666C2.30762 3.3499 2.0166 3.64092 2.0166 3.9999Z" fill="black"/>
</svg>

<svg xmlns="http://www.w3.org/2000/svg" width="16" height="16" fill="none" viewBox="0 0 16 16"><path d="M0 16h16V0H0z"/><path fill="#000" fill-rule="evenodd" d="M2.017 12a.65.65 0 0 0 .65.65h10.6667a.65.65 0 1 0 0-1.3H2.667a.65.65 0 0 0-.65.65m0-4a.65.65 0 0 0 .65.65h8a.65.65 0 0 0 0-1.3h-8a.65.65 0 0 0-.65.65m0-4a.65.65 0 0 0 .65.65h5.3333a.65.65 0 1 0 0-1.3H2.667a.65.65 0 0 0-.65.65"/></svg>
